src/images/circuits/brazilian.svg

<svg width="40" height="25" viewBox="0 0 40 25" fill="none" xmlns="http://www.w3.org/2000/svg">
<path d="M7.63527 8.08851C11.5101 5.88497 17.2868 2.64963 19.8221 1.37532C19.8738 1.34932 19.9236 1.33404 19.9811 1.32799C21.7604 1.14075 28.7961 1.00227 30.2308 1.00227C32.0534 1.00227 33.3473 0.886481 34.6715 2.30757C36.0102 3.74427 38.8919 7.66841 38.9878 8.81956C39.0838 9.97071 38.6041 13.3282 37.8367 13.7119C37.0693 14.0957 33.6739 12.9952 31.2756 11.94C28.8774 10.8848 29.0112 8.6277 29.299 7.76434C29.5185 7.10583 30.6536 4.70991 31.3131 3.51817C31.3727 3.41048 31.392 3.2859 31.3662 3.16555L31.3372 3.03015C31.2714 2.72307 30.9426 2.55175 30.6547 2.67729C29.4643 3.19642 27.6148 4.04582 27.0926 4.50275C26.3252 5.17426 26.3252 6.3254 25.7496 7.09284C25.174 7.86027 23.927 8.14806 23.0636 8.05213C22.407 7.97917 22.2763 7.14911 22.2925 6.68274C22.2941 6.63637 22.3042 6.59108 22.3201 6.54748L23.1497 4.26955C23.2868 3.89299 22.9501 3.52404 22.5649 3.63464C21.8265 3.84665 20.7234 4.18011 19.5142 4.59868C17.0201 5.46204 16.4189 5.82548 16.4189 8.51149C16.4189 11.1975 19.9453 12.1032 25.6268 13.9971C31.155 15.8398 30.9165 17.8827 30.8339 20.7148L30.8338 20.7161C30.7721 22.8333 30.7547 23.4304 28.9521 23.7477C27.5994 23.9858 11.4562 23.9764 7.71494 23.9764C3.97371 23.9764 2.739 20.2261 2.83493 18.2116C2.88533 17.1531 3.28506 16.2563 3.22879 15.5108C3.17253 14.7652 2.14376 14.5999 1.41536 14.1447C-0.119507 13.1854 2.74268 10.8708 7.63527 8.08851Z" stroke="#FF0000"/>
</svg>

<svg width="40" height="25" fill="none" xmlns="http://www.w3.org/2000/svg"><path d="M7.635 8.089c3.875-2.204 9.652-5.44 12.187-6.714a.445.445 0 0 1 .16-.047c1.778-.187 8.814-.326 10.249-.326 1.822 0 3.116-.116 4.44 1.306 1.34 1.436 4.22 5.36 4.317 6.512.096 1.15-.384 4.508-1.151 4.892-.768.384-4.163-.717-6.561-1.772-2.399-1.055-2.265-3.312-1.977-4.176.22-.658 1.355-3.054 2.014-4.246a.507.507 0 0 0 .053-.352l-.029-.136a.496.496 0 0 0-.682-.353c-1.19.52-3.04 1.369-3.562 1.826-.768.671-.768 1.822-1.343 2.59-.576.767-1.823 1.055-2.686.96-.657-.074-.788-.904-.771-1.37a.439.439 0 0 1 .027-.136l.83-2.277a.482.482 0 0 0-.585-.635c-.739.212-1.842.545-3.05.964-2.495.863-3.096 1.226-3.096 3.912 0 2.687 3.526 3.592 9.208 5.486 5.528 1.843 5.29 3.886 5.207 6.718v.001c-.062 2.117-.08 2.714-1.882 3.032-1.353.238-17.496.228-21.237.228-3.741 0-4.976-3.75-4.88-5.764.05-1.059.45-1.956.394-2.701-.056-.746-1.085-.911-1.814-1.366-1.535-.96 1.328-3.274 6.22-6.056Z" stroke="red"/></svg>
